X: 1
T: Polly The Lass
M: 9/8
L: 1/8
R: slip jig
S: William Vickers MS. (1770)
K: Cmaj
C|EGE cdc B2G|AcA GEC D2F|EGE cdc B2G|Afe dcB c2:|
|:f|e2c egf edc|B2G BdB G2f|e2c egf edc|Afe dcB c2:|
